X:1
T:Olive-Branch -- Hornpipe
R:hornpipe
B:Cole's 1000 Fiddle Tunes
M:C|
L:1/8
K:A
vA2 (uc>.A) ve>A(uf>.A)|"Segue"e>Af>A e>cB>c|\
A2c>A e>Af>A|e>cB>c A>FG>E|
A2c>A e>Af>A|e>Af>A e>cB>c|\
A>BA>F E>cd>f|e>cB>c A2z2:|
|:vA2 c>e a2a>f|e>fe>d c>dB>c|\
A2c>e a2a>g|f>bb>a g>be>g|
a>ga>e f>ae>c|d>Bc>A B>AF>G|\
A>BA>F E>cd>f|e>cB>c A2z2:|
